resources/svg/regular/health.svg

<svg xmlns="http://www.w3.org/2000/svg" fill="currentColor" stroke="none" viewBox="0 0 24 24"><path d="M19.649 5.286 14 8.548V2.025h-4v6.523L4.351 5.286l-2 3.465 5.648 3.261-5.648 3.261 2 3.465L10 15.477V22h4v-6.523l5.649 3.261 2-3.465-5.648-3.261 5.648-3.261z"/></svg>

<svg xmlns="http://www.w3.org/2000/svg" fill="currentColor" stroke="none" viewBox="0 0 24 24"><path d="M19.649 5.286L14 8.548 14 2.025 10 2.025 10 8.548 4.351 5.286 2.351 8.751 7.999 12.012 2.351 15.273 4.351 18.738 10 15.477 10 22 14 22 14 15.477 19.649 18.738 21.649 15.273 16.001 12.012 21.649 8.751z"/></svg>
